X:1
T:Title
%%score { ( 1 4 ) | ( 2 3 ) }
L:1/8
Q:1/4=100
M:6/8
K:F
V:1 treble nm="Grand Piano"
V:4 treble 
V:2 bass 
V:3 bass 
V:1
 A>AA Bcd | c3 A3 | [Ec]2 [Ec] [EG]2 [EB] | A6 | A>AA ABc | [Fe]3 [Fd]3 | [Fc]2 [Fc] [GB]2 [EG] | %7
w: C.~A.~Shaw * * * * *|||||||
 F6 | [Fd]3 z3 | [Fc]6 |[M:3/8] [EG]2 [EG] | [GB]2 [GB] |[M:3/4] d3 c3 | [Fd]4 z2 | [Fc]6 | %15
w: ||||||||
[M:3/8] [CEG]2 [CEG] | [CFA]2 [B,EG] |[M:3/4] [A,F]6 |] %18
w: |||
V:2
 z3 .D3 | [F,A,F]3 [F,CF]3 | [C,C]2 [C,C] [C,C]2 [C,C] | [F,CF]6 | %4
 [F,CF]>[F,CF][F,CF] [F,CF]2 [F,A,F] | [B,,C]3 [B,,B,]3 | [C,A,]2 [C,A,] [C,G,]2 [C,B,] | [F,A,]6 | %8
 [B,,B,]>B,,B,, B,,2 [B,,B,] | [F,A,]>F,F, F,2 [F,CF] |[M:3/8] [C,C]2 [C,C] | [C,C]2 [C,C] | %12
[M:3/4] [F,F]6 | [B,,B,]>B,, B,, B,,2 [B,,B,] | [F,A,]>F, F, F,2 F, |[M:3/8] C,2 C, | C,2 C, | %17
[M:3/4] F,6 |] %18
V:3
 [F,CF]>[F,CF][F,CF] [F,F]-[F,A,F][F,B,F] | x6 | x6 | x6 | x6 | x6 | x6 | x6 | x6 | x6 | %10
[M:3/8] x3 | x3 |[M:3/4] B,3 A,3 | x6 | x6 |[M:3/8] x3 | x3 |[M:3/4] x6 |] %18
V:4
 x6 | x6 | x6 | x6 | x6 | x6 | x6 | x6 | z z/ B,/B, [DFB]2 [Fd] | z z/ A,/A, A,2 A |[M:3/8] x3 | %11
 x3 |[M:3/4] x6 | z z/ B,/ B, [DFB]2 [Fd] | z z/ A,/ A, A,2 [CFA] |[M:3/8] x3 | x3 |[M:3/4] x6 |] %18

